assets/sport-HGJFH7ES.svg

<svg width="110" height="110" viewBox="0 0 110 110" fill="none" xmlns="http://www.w3.org/2000/svg">
<circle opacity="0.05" cx="55" cy="55" r="55" fill="black"/>
<g opacity="0.9" clip-path="url(#clip0_1_386)">
<mask id="path-2-outside-1_1_386" maskUnits="userSpaceOnUse" x="24.7967" y="24.7582" width="60.1041" height="60.1041" fill="black">
<rect fill="white" x="24.7967" y="24.7582" width="60.1041" height="60.1041"/>
<path fill-rule="evenodd" clip-rule="evenodd" d="M32.7051 59.935L33.4496 59.1906C34.0326 58.6076 34.7847 58.2945 35.55 58.2547L33.0271 55.7318C32.4037 55.1084 32.0886 54.2859 32.0879 53.4642L32.0869 53.4552L32.0856 53.4539C32.0879 52.6272 32.4003 51.8028 33.0254 51.1777L34.4211 49.782C35.0495 49.1536 35.8749 48.8403 36.699 48.8406C37.5234 48.8392 38.3485 49.1536 38.9762 49.7813L45.8005 56.6056L56.6057 45.8004L49.7824 38.9765C49.156 38.3501 48.8433 37.5267 48.841 36.702L48.8426 36.7003L48.8429 36.6973L48.8423 36.6914C48.8456 35.867 49.1577 35.0462 49.7811 34.4228L51.1789 33.025C51.8066 32.3972 52.631 32.0848 53.4545 32.0858C54.2782 32.0852 55.1039 32.3989 55.7316 33.0266L58.2553 35.5502C58.2967 34.7852 58.6078 34.0317 59.1891 33.4505L59.9335 32.706C60.5613 32.0782 61.385 31.7652 62.2107 31.7652C63.0345 31.7645 63.8589 32.0769 64.4869 32.705L67.7188 35.9368L68.4798 36.6953L73.3051 41.5207L74.0633 42.2814L77.2972 45.5153C77.9216 46.1398 78.2356 46.9658 78.2357 47.7902L78.2367 47.7945C78.2357 48.6166 77.9219 49.4424 77.2955 50.0688L76.551 50.8133C75.9697 51.3946 75.217 51.707 74.4513 51.7471L76.9749 54.2707C77.6016 54.8974 77.9137 55.7215 77.9147 56.5469L77.9133 56.5482C77.9123 57.3749 77.5997 58.1983 76.9748 58.8231L75.5771 60.2208C74.949 60.8489 74.1253 61.162 73.2992 61.1623C72.4761 61.1623 71.6527 60.8489 71.0247 60.2209L64.6803 53.8758L53.8759 64.6802L60.221 71.0253C60.8478 71.652 61.1605 72.4754 61.1608 73.3014L61.1591 73.3031C61.1604 74.1275 60.846 74.9526 60.2194 75.5792L58.8236 76.975C58.1969 77.6017 57.3721 77.9158 56.5475 77.9147C55.7244 77.9147 54.8993 77.603 54.2713 76.975L51.7477 74.4513C51.7066 75.218 51.3955 75.9695 50.8125 76.5525L50.068 77.2969C49.4416 77.9234 48.6159 78.2371 47.7935 78.2384C46.9691 78.237 46.1428 77.9233 45.5167 77.2972L42.2828 74.0633L41.5231 73.3031L36.6974 68.4781L35.9376 67.7189L32.7058 64.487C32.0823 63.8636 31.7696 63.0422 31.7669 62.2184L31.7669 62.2131L31.7653 62.2114L31.7669 62.2098C31.7672 61.3837 32.081 60.5592 32.7051 59.935ZM33.7856 51.9358L35.1813 50.5401C35.6005 50.1209 36.1503 49.9133 36.6998 49.9143C37.2506 49.9127 37.8004 50.1222 38.2183 50.5401L59.4611 71.7829C59.8803 72.2021 60.0889 72.7509 60.0902 73.298L60.0885 73.303C60.0895 73.8512 59.8786 74.399 59.4595 74.8182L58.0637 76.2139C57.6462 76.6314 57.0961 76.8413 56.5469 76.8413C55.9968 76.8403 55.4476 76.6347 55.0284 76.2156L33.7856 54.9727C33.3671 54.5542 33.1569 54.0031 33.1598 53.4543L33.1582 53.4526C33.1585 52.9038 33.3668 52.3546 33.7856 51.9358ZM33.4645 60.6938L34.209 59.9493C34.6262 59.5321 35.1766 59.3212 35.7268 59.3229C36.2763 59.3225 36.8264 59.5305 37.2442 59.9483L50.0538 72.7578C50.4706 73.1747 50.6795 73.7238 50.6815 74.2743L50.6799 74.276C50.6795 74.8248 50.4693 75.3753 50.0521 75.7924L49.3076 76.5369C48.8905 76.9541 48.3413 77.163 47.7925 77.1633C47.2404 77.163 46.6912 76.9547 46.2741 76.5375L33.4645 63.728C33.045 63.3085 32.8365 62.759 32.8361 62.2135L32.8368 62.2076C32.8354 61.6598 33.0473 61.1109 33.4645 60.6938ZM59.9497 34.2085L60.6941 33.4641C61.1113 33.0469 61.6615 32.8363 62.212 32.8376C62.7608 32.838 63.3116 33.0452 63.7294 33.463L76.5389 46.2726C76.9558 46.6894 77.1647 47.2386 77.1667 47.7891L77.165 47.7907C77.1647 48.3396 76.9545 48.89 76.5373 49.3072L75.7928 50.0517C75.3753 50.4692 74.8252 50.6791 74.2763 50.6794C73.7259 50.6774 73.1767 50.4692 72.7595 50.052L59.95 37.2425C59.5305 36.823 59.3203 36.2752 59.3216 35.728L59.3206 35.7237C59.3206 35.1745 59.5318 34.6264 59.9497 34.2085ZM50.5405 35.1809L51.9383 33.7831C52.3554 33.3659 52.9052 33.1583 53.455 33.159C54.0042 33.159 54.5557 33.3669 54.9735 33.7848L72.0005 50.8118L76.2167 55.0273C76.6358 55.4464 76.8441 55.9956 76.8457 56.5424L76.8441 56.5474C76.8438 57.0969 76.6335 57.644 76.2164 58.0612L74.8186 59.459C74.4011 59.8765 73.8506 60.0867 73.3018 60.0864C72.7516 60.0854 72.2025 59.8798 71.7833 59.4606L50.5405 38.2178C50.122 37.7993 49.9114 37.2485 49.9131 36.701L49.9131 36.6977C49.9124 36.1498 50.1227 35.5987 50.5405 35.1809ZM46.739 57.1843L52.052 51.8713L57.3651 46.5582L63.922 53.1152L53.296 63.7413L46.739 57.1843Z"/>
</mask>
<path fill-rule="evenodd" clip-rule="evenodd" d="M32.7051 59.935L33.4496 59.1906C34.0326 58.6076 34.7847 58.2945 35.55 58.2547L33.0271 55.7318C32.4037 55.1084 32.0886 54.2859 32.0879 53.4642L32.0869 53.4552L32.0856 53.4539C32.0879 52.6272 32.4003 51.8028 33.0254 51.1777L34.4211 49.782C35.0495 49.1536 35.8749 48.8403 36.699 48.8406C37.5234 48.8392 38.3485 49.1536 38.9762 49.7813L45.8005 56.6056L56.6057 45.8004L49.7824 38.9765C49.156 38.3501 48.8433 37.5267 48.841 36.702L48.8426 36.7003L48.8429 36.6973L48.8423 36.6914C48.8456 35.867 49.1577 35.0462 49.7811 34.4228L51.1789 33.025C51.8066 32.3972 52.631 32.0848 53.4545 32.0858C54.2782 32.0852 55.1039 32.3989 55.7316 33.0266L58.2553 35.5502C58.2967 34.7852 58.6078 34.0317 59.1891 33.4505L59.9335 32.706C60.5613 32.0782 61.385 31.7652 62.2107 31.7652C63.0345 31.7645 63.8589 32.0769 64.4869 32.705L67.7188 35.9368L68.4798 36.6953L73.3051 41.5207L74.0633 42.2814L77.2972 45.5153C77.9216 46.1398 78.2356 46.9658 78.2357 47.7902L78.2367 47.7945C78.2357 48.6166 77.9219 49.4424 77.2955 50.0688L76.551 50.8133C75.9697 51.3946 75.217 51.707 74.4513 51.7471L76.9749 54.2707C77.6016 54.8974 77.9137 55.7215 77.9147 56.5469L77.9133 56.5482C77.9123 57.3749 77.5997 58.1983 76.9748 58.8231L75.5771 60.2208C74.949 60.8489 74.1253 61.162 73.2992 61.1623C72.4761 61.1623 71.6527 60.8489 71.0247 60.2209L64.6803 53.8758L53.8759 64.6802L60.221 71.0253C60.8478 71.652 61.1605 72.4754 61.1608 73.3014L61.1591 73.3031C61.1604 74.1275 60.846 74.9526 60.2194 75.5792L58.8236 76.975C58.1969 77.6017 57.3721 77.9158 56.5475 77.9147C55.7244 77.9147 54.8993 77.603 54.2713 76.975L51.7477 74.4513C51.7066 75.218 51.3955 75.9695 50.8125 76.5525L50.068 77.2969C49.4416 77.9234 48.6159 78.2371 47.7935 78.2384C46.9691 78.237 46.1428 77.9233 45.5167 77.2972L42.2828 74.0633L41.5231 73.3031L36.6974 68.4781L35.9376 67.7189L32.7058 64.487C32.0823 63.8636 31.7696 63.0422 31.7669 62.2184L31.7669 62.2131L31.7653 62.2114L31.7669 62.2098C31.7672 61.3837 32.081 60.5592 32.7051 59.935ZM33.7856 51.9358L35.1813 50.5401C35.6005 50.1209 36.1503 49.9133 36.6998 49.9143C37.2506 49.9127 37.8004 50.1222 38.2183 50.5401L59.4611 71.7829C59.8803 72.2021 60.0889 72.7509 60.0902 73.298L60.0885 73.303C60.0895 73.8512 59.8786 74.399 59.4595 74.8182L58.0637 76.2139C57.6462 76.6314 57.0961 76.8413 56.5469 76.8413C55.9968 76.8403 55.4476 76.6347 55.0284 76.2156L33.7856 54.9727C33.3671 54.5542 33.1569 54.0031 33.1598 53.4543L33.1582 53.4526C33.1585 52.9038 33.3668 52.3546 33.7856 51.9358ZM33.4645 60.6938L34.209 59.9493C34.6262 59.5321 35.1766 59.3212 35.7268 59.3229C36.2763 59.3225 36.8264 59.5305 37.2442 59.9483L50.0538 72.7578C50.4706 73.1747 50.6795 73.7238 50.6815 74.2743L50.6799 74.276C50.6795 74.8248 50.4693 75.3753 50.0521 75.7924L49.3076 76.5369C48.8905 76.9541 48.3413 77.163 47.7925 77.1633C47.2404 77.163 46.6912 76.9547 46.2741 76.5375L33.4645 63.728C33.045 63.3085 32.8365 62.759 32.8361 62.2135L32.8368 62.2076C32.8354 61.6598 33.0473 61.1109 33.4645 60.6938ZM59.9497 34.2085L60.6941 33.4641C61.1113 33.0469 61.6615 32.8363 62.212 32.8376C62.7608 32.838 63.3116 33.0452 63.7294 33.463L76.5389 46.2726C76.9558 46.6894 77.1647 47.2386 77.1667 47.7891L77.165 47.7907C77.1647 48.3396 76.9545 48.89 76.5373 49.3072L75.7928 50.0517C75.3753 50.4692 74.8252 50.6791 74.2763 50.6794C73.7259 50.6774 73.1767 50.4692 72.7595 50.052L59.95 37.2425C59.5305 36.823 59.3203 36.2752 59.3216 35.728L59.3206 35.7237C59.3206 35.1745 59.5318 34.6264 59.9497 34.2085ZM50.5405 35.1809L51.9383 33.7831C52.3554 33.3659 52.9052 33.1583 53.455 33.159C54.0042 33.159 54.5557 33.3669 54.9735 33.7848L72.0005 50.8118L76.2167 55.0273C76.6358 55.4464 76.8441 55.9956 76.8457 56.5424L76.8441 56.5474C76.8438 57.0969 76.6335 57.644 76.2164 58.0612L74.8186 59.459C74.4011 59.8765 73.8506 60.0867 73.3018 60.0864C72.7516 60.0854 72.2025 59.8798 71.7833 59.4606L50.5405 38.2178C50.122 37.7993 49.9114 37.2485 49.9131 36.701L49.9131 36.6977C49.9124 36.1498 50.1227 35.5987 50.5405 35.1809ZM46.739 57.1843L52.052 51.8713L57.3651 46.5582L63.922 53.1152L53.296 63.7413L46.739 57.1843Z" fill="#B01736"/>
<path fill-rule="evenodd" clip-rule="evenodd" d="M32.7051 59.935L33.4496 59.1906C34.0326 58.6076 34.7847 58.2945 35.55 58.2547L33.0271 55.7318C32.4037 55.1084 32.0886 54.2859 32.0879 53.4642L32.0869 53.4552L32.0856 53.4539C32.0879 52.6272 32.4003 51.8028 33.0254 51.1777L34.4211 49.782C35.0495 49.1536 35.8749 48.8403 36.699 48.8406C37.5234 48.8392 38.3485 49.1536 38.9762 49.7813L45.8005 56.6056L56.6057 45.8004L49.7824 38.9765C49.156 38.3501 48.8433 37.5267 48.841 36.702L48.8426 36.7003L48.8429 36.6973L48.8423 36.6914C48.8456 35.867 49.1577 35.0462 49.7811 34.4228L51.1789 33.025C51.8066 32.3972 52.631 32.0848 53.4545 32.0858C54.2782 32.0852 55.1039 32.3989 55.7316 33.0266L58.2553 35.5502C58.2967 34.7852 58.6078 34.0317 59.1891 33.4505L59.9335 32.706C60.5613 32.0782 61.385 31.7652 62.2107 31.7652C63.0345 31.7645 63.8589 32.0769 64.4869 32.705L67.7188 35.9368L68.4798 36.6953L73.3051 41.5207L74.0633 42.2814L77.2972 45.5153C77.9216 46.1398 78.2356 46.9658 78.2357 47.7902L78.2367 47.7945C78.2357 48.6166 77.9219 49.4424 77.2955 50.0688L76.551 50.8133C75.9697 51.3946 75.217 51.707 74.4513 51.7471L76.9749 54.2707C77.6016 54.8974 77.9137 55.7215 77.9147 56.5469L77.9133 56.5482C77.9123 57.3749 77.5997 58.1983 76.9748 58.8231L75.5771 60.2208C74.949 60.8489 74.1253 61.162 73.2992 61.1623C72.4761 61.1623 71.6527 60.8489 71.0247 60.2209L64.6803 53.8758L53.8759 64.6802L60.221 71.0253C60.8478 71.652 61.1605 72.4754 61.1608 73.3014L61.1591 73.3031C61.1604 74.1275 60.846 74.9526 60.2194 75.5792L58.8236 76.975C58.1969 77.6017 57.3721 77.9158 56.5475 77.9147C55.7244 77.9147 54.8993 77.603 54.2713 76.975L51.7477 74.4513C51.7066 75.218 51.3955 75.9695 50.8125 76.5525L50.068 77.2969C49.4416 77.9234 48.6159 78.2371 47.7935 78.2384C46.9691 78.237 46.1428 77.9233 45.5167 77.2972L42.2828 74.0633L41.5231 73.3031L36.6974 68.4781L35.9376 67.7189L32.7058 64.487C32.0823 63.8636 31.7696 63.0422 31.7669 62.2184L31.7669 62.2131L31.7653 62.2114L31.7669 62.2098C31.7672 61.3837 32.081 60.5592 32.7051 59.935ZM33.7856 51.9358L35.1813 50.5401C35.6005 50.1209 36.1503 49.9133 36.6998 49.9143C37.2506 49.9127 37.8004 50.1222 38.2183 50.5401L59.4611 71.7829C59.8803 72.2021 60.0889 72.7509 60.0902 73.298L60.0885 73.303C60.0895 73.8512 59.8786 74.399 59.4595 74.8182L58.0637 76.2139C57.6462 76.6314 57.0961 76.8413 56.5469 76.8413C55.9968 76.8403 55.4476 76.6347 55.0284 76.2156L33.7856 54.9727C33.3671 54.5542 33.1569 54.0031 33.1598 53.4543L33.1582 53.4526C33.1585 52.9038 33.3668 52.3546 33.7856 51.9358ZM33.4645 60.6938L34.209 59.9493C34.6262 59.5321 35.1766 59.3212 35.7268 59.3229C36.2763 59.3225 36.8264 59.5305 37.2442 59.9483L50.0538 72.7578C50.4706 73.1747 50.6795 73.7238 50.6815 74.2743L50.6799 74.276C50.6795 74.8248 50.4693 75.3753 50.0521 75.7924L49.3076 76.5369C48.8905 76.9541 48.3413 77.163 47.7925 77.1633C47.2404 77.163 46.6912 76.9547 46.2741 76.5375L33.4645 63.728C33.045 63.3085 32.8365 62.759 32.8361 62.2135L32.8368 62.2076C32.8354 61.6598 33.0473 61.1109 33.4645 60.6938ZM59.9497 34.2085L60.6941 33.4641C61.1113 33.0469 61.6615 32.8363 62.212 32.8376C62.7608 32.838 63.3116 33.0452 63.7294 33.463L76.5389 46.2726C76.9558 46.6894 77.1647 47.2386 77.1667 47.7891L77.165 47.7907C77.1647 48.3396 76.9545 48.89 76.5373 49.3072L75.7928 50.0517C75.3753 50.4692 74.8252 50.6791 74.2763 50.6794C73.7259 50.6774 73.1767 50.4692 72.7595 50.052L59.95 37.2425C59.5305 36.823 59.3203 36.2752 59.3216 35.728L59.3206 35.7237C59.3206 35.1745 59.5318 34.6264 59.9497 34.2085ZM50.5405 35.1809L51.9383 33.7831C52.3554 33.3659 52.9052 33.1583 53.455 33.159C54.0042 33.159 54.5557 33.3669 54.9735 33.7848L72.0005 50.8118L76.2167 55.0273C76.6358 55.4464 76.8441 55.9956 76.8457 56.5424L76.8441 56.5474C76.8438 57.0969 76.6335 57.644 76.2164 58.0612L74.8186 59.459C74.4011 59.8765 73.8506 60.0867 73.3018 60.0864C72.7516 60.0854 72.2025 59.8798 71.7833 59.4606L50.5405 38.2178C50.122 37.7993 49.9114 37.2485 49.9131 36.701L49.9131 36.6977C49.9124 36.1498 50.1227 35.5987 50.5405 35.1809ZM46.739 57.1843L52.052 51.8713L57.3651 46.5582L63.922 53.1152L53.296 63.7413L46.739 57.1843Z" stroke="#B01736" stroke-width="0.8" mask="url(#path-2-outside-1_1_386)"/>
</g>
<defs>
<clipPath id="clip0_1_386">
<rect width="48" height="48" fill="white" transform="translate(31 31)"/>
</clipPath>
</defs>
</svg>

<svg width="110" height="110" fill="none" xmlns="http://www.w3.org/2000/svg"><circle opacity=".05" cx="55" cy="55" r="55" fill="#000"/><g opacity=".9" clip-path="url(#a)"><mask id="b" maskUnits="userSpaceOnUse" x="24.797" y="24.758" width="60.104" height="60.104" fill="#000"><path fill="#fff" d="M24.797 24.758h60.104v60.104H24.797z"/><path fill-rule="evenodd" clip-rule="evenodd" d="m32.705 59.935.745-.744a3.196 3.196 0 0 1 2.1-.936l-2.523-2.523a3.205 3.205 0 0 1-.94-2.268v-.009l-.001-.001a3.22 3.22 0 0 1 .94-2.276l1.395-1.396a3.21 3.21 0 0 1 2.278-.941 3.204 3.204 0 0 1 2.277.94l6.825 6.825L56.605 45.8l-6.824-6.823a3.217 3.217 0 0 1-.941-2.275l.002-.002v-.009a3.213 3.213 0 0 1 .938-2.268l1.398-1.398a3.202 3.202 0 0 1 2.276-.94c.823 0 1.649.314 2.277.942l2.523 2.523a3.205 3.205 0 0 1 .934-2.1l.745-.744a3.208 3.208 0 0 1 2.277-.94 3.197 3.197 0 0 1 2.276.939l3.232 3.232.76.758 4.826 4.826.758.76 3.234 3.234a3.21 3.21 0 0 1 .939 2.275v.005a3.215 3.215 0 0 1-.94 2.274l-.745.744a3.197 3.197 0 0 1-2.1.934l2.524 2.524c.627.626.939 1.45.94 2.276l-.002.001a3.21 3.21 0 0 1-.938 2.275l-1.398 1.398a3.21 3.21 0 0 1-2.278.941 3.206 3.206 0 0 1-2.274-.941l-6.345-6.345L53.876 64.68l6.345 6.345c.627.627.94 1.45.94 2.276l-.002.002a3.204 3.204 0 0 1-.94 2.276l-1.395 1.396a3.204 3.204 0 0 1-2.276.94 3.208 3.208 0 0 1-2.277-.94l-2.523-2.524a3.2 3.2 0 0 1-.935 2.102l-.745.744a3.22 3.22 0 0 1-4.551 0l-3.234-3.234-.76-.76-4.826-4.825-.76-.76-3.231-3.231a3.211 3.211 0 0 1-.94-2.269v-.008c.001-.826.315-1.65.94-2.275Zm1.08-8 1.396-1.395c.42-.42.97-.627 1.519-.626.55-.001 1.1.208 1.518.626l21.243 21.243c.42.42.628.968.63 1.515l-.002.005a2.132 2.132 0 0 1-.63 1.515l-1.395 1.396a2.14 2.14 0 0 1-1.517.627 2.141 2.141 0 0 1-1.519-.625L33.786 54.973a2.128 2.128 0 0 1-.626-1.519l-.002-.001c0-.55.209-1.098.628-1.517Zm-.32 8.759.744-.745a2.134 2.134 0 0 1 1.518-.626c.55 0 1.1.208 1.517.625l12.81 12.81c.417.417.625.966.627 1.516l-.001.002c0 .549-.21 1.1-.628 1.516l-.744.745a2.138 2.138 0 0 1-1.516.626 2.14 2.14 0 0 1-1.518-.626l-12.81-12.809a2.14 2.14 0 0 1-.628-1.514v-.006a2.131 2.131 0 0 1 .629-1.514ZM59.95 34.208l.744-.744a2.135 2.135 0 0 1 1.518-.626c.549 0 1.1.207 1.517.625l12.81 12.81c.417.416.626.966.628 1.516l-.002.002c0 .549-.21 1.099-.628 1.516l-.744.745a2.148 2.148 0 0 1-3.033 0l-12.81-12.81a2.13 2.13 0 0 1-.628-1.514l-.001-.004c0-.55.21-1.098.629-1.515Zm-9.41.973 1.398-1.398a2.133 2.133 0 0 1 1.517-.624c.55 0 1.1.208 1.519.626L72 50.812l4.216 4.215c.419.42.627.969.629 1.515l-.002.005c0 .55-.21 1.097-.628 1.514L74.82 59.46a2.14 2.14 0 0 1-1.517.627 2.14 2.14 0 0 1-1.519-.625L50.541 38.218a2.134 2.134 0 0 1-.628-1.517v-.003c0-.548.21-1.1.628-1.517Zm-3.8 22.003 5.313-5.313 5.313-5.313 6.557 6.557-10.626 10.626-6.557-6.557Z"/></mask><path fill-rule="evenodd" clip-rule="evenodd" d="m32.705 59.935.745-.744a3.196 3.196 0 0 1 2.1-.936l-2.523-2.523a3.205 3.205 0 0 1-.94-2.268v-.009l-.001-.001a3.22 3.22 0 0 1 .94-2.276l1.395-1.396a3.21 3.21 0 0 1 2.278-.941 3.204 3.204 0 0 1 2.277.94l6.825 6.825L56.605 45.8l-6.824-6.823a3.217 3.217 0 0 1-.941-2.275l.002-.002v-.009a3.213 3.213 0 0 1 .938-2.268l1.398-1.398a3.202 3.202 0 0 1 2.276-.94c.823 0 1.649.314 2.277.942l2.523 2.523a3.205 3.205 0 0 1 .934-2.1l.745-.744a3.208 3.208 0 0 1 2.277-.94 3.197 3.197 0 0 1 2.276.939l3.232 3.232.76.758 4.826 4.826.758.76 3.234 3.234a3.21 3.21 0 0 1 .939 2.275v.005a3.215 3.215 0 0 1-.94 2.274l-.745.744a3.197 3.197 0 0 1-2.1.934l2.524 2.524c.627.626.939 1.45.94 2.276l-.002.001a3.21 3.21 0 0 1-.938 2.275l-1.398 1.398a3.21 3.21 0 0 1-2.278.941 3.206 3.206 0 0 1-2.274-.941l-6.345-6.345L53.876 64.68l6.345 6.345c.627.627.94 1.45.94 2.276l-.002.002a3.204 3.204 0 0 1-.94 2.276l-1.395 1.396a3.204 3.204 0 0 1-2.276.94 3.208 3.208 0 0 1-2.277-.94l-2.523-2.524a3.2 3.2 0 0 1-.935 2.102l-.745.744a3.22 3.22 0 0 1-4.551 0l-3.234-3.234-.76-.76-4.826-4.825-.76-.76-3.231-3.231a3.211 3.211 0 0 1-.94-2.269v-.008c.001-.826.315-1.65.94-2.275Zm1.08-8 1.396-1.395c.42-.42.97-.627 1.519-.626.55-.001 1.1.208 1.518.626l21.243 21.243c.42.42.628.968.63 1.515l-.002.005a2.132 2.132 0 0 1-.63 1.515l-1.395 1.396a2.14 2.14 0 0 1-1.517.627 2.141 2.141 0 0 1-1.519-.625L33.786 54.973a2.128 2.128 0 0 1-.626-1.519l-.002-.001c0-.55.209-1.098.628-1.517Zm-.32 8.759.744-.745a2.134 2.134 0 0 1 1.518-.626c.55 0 1.1.208 1.517.625l12.81 12.81c.417.417.625.966.627 1.516l-.001.002c0 .549-.21 1.1-.628 1.516l-.744.745a2.138 2.138 0 0 1-1.516.626 2.14 2.14 0 0 1-1.518-.626l-12.81-12.809a2.14 2.14 0 0 1-.628-1.514v-.006a2.131 2.131 0 0 1 .629-1.514ZM59.95 34.208l.744-.744a2.135 2.135 0 0 1 1.518-.626c.549 0 1.1.207 1.517.625l12.81 12.81c.417.416.626.966.628 1.516l-.002.002c0 .549-.21 1.099-.628 1.516l-.744.745a2.148 2.148 0 0 1-3.033 0l-12.81-12.81a2.13 2.13 0 0 1-.628-1.514l-.001-.004c0-.55.21-1.098.629-1.515Zm-9.41.973 1.398-1.398a2.133 2.133 0 0 1 1.517-.624c.55 0 1.1.208 1.519.626L72 50.812l4.216 4.215c.419.42.627.969.629 1.515l-.002.005c0 .55-.21 1.097-.628 1.514L74.82 59.46a2.14 2.14 0 0 1-1.517.627 2.14 2.14 0 0 1-1.519-.625L50.541 38.218a2.134 2.134 0 0 1-.628-1.517v-.003c0-.548.21-1.1.628-1.517Zm-3.8 22.003 5.313-5.313 5.313-5.313 6.557 6.557-10.626 10.626-6.557-6.557Z" fill="#B01736"/><path clip-rule="evenodd" d="m32.705 59.935.745-.744a3.196 3.196 0 0 1 2.1-.936l-2.523-2.523a3.205 3.205 0 0 1-.94-2.268v-.009l-.001-.001a3.22 3.22 0 0 1 .94-2.276l1.395-1.396a3.21 3.21 0 0 1 2.278-.941 3.204 3.204 0 0 1 2.277.94l6.825 6.825L56.605 45.8l-6.824-6.823a3.217 3.217 0 0 1-.941-2.275l.002-.002v-.009a3.213 3.213 0 0 1 .938-2.268l1.398-1.398a3.202 3.202 0 0 1 2.276-.94c.823 0 1.649.314 2.277.942l2.523 2.523a3.205 3.205 0 0 1 .934-2.1l.745-.744a3.208 3.208 0 0 1 2.277-.94 3.197 3.197 0 0 1 2.276.939l3.232 3.232.76.758 4.826 4.826.758.76 3.234 3.234a3.21 3.21 0 0 1 .939 2.275v.005a3.215 3.215 0 0 1-.94 2.274l-.745.744a3.197 3.197 0 0 1-2.1.934l2.524 2.524c.627.626.939 1.45.94 2.276l-.002.001a3.21 3.21 0 0 1-.938 2.275l-1.398 1.398a3.21 3.21 0 0 1-2.278.941 3.206 3.206 0 0 1-2.274-.941l-6.345-6.345L53.876 64.68l6.345 6.345c.627.627.94 1.45.94 2.276l-.002.002a3.204 3.204 0 0 1-.94 2.276l-1.395 1.396a3.204 3.204 0 0 1-2.276.94 3.208 3.208 0 0 1-2.277-.94l-2.523-2.524a3.2 3.2 0 0 1-.935 2.102l-.745.744a3.22 3.22 0 0 1-4.551 0l-3.234-3.234-.76-.76-4.826-4.825-.76-.76-3.231-3.231a3.211 3.211 0 0 1-.94-2.269v-.008c.001-.826.315-1.65.94-2.275Zm1.08-8 1.396-1.395c.42-.42.97-.627 1.519-.626.55-.001 1.1.208 1.518.626l21.243 21.243c.42.42.628.968.63 1.515l-.002.005a2.132 2.132 0 0 1-.63 1.515l-1.395 1.396a2.14 2.14 0 0 1-1.517.627 2.141 2.141 0 0 1-1.519-.625L33.786 54.973a2.128 2.128 0 0 1-.626-1.519l-.002-.001c0-.55.209-1.098.628-1.517Zm-.32 8.759.744-.745a2.134 2.134 0 0 1 1.518-.626c.55 0 1.1.208 1.517.625l12.81 12.81c.417.417.625.966.627 1.516l-.001.002c0 .549-.21 1.1-.628 1.516l-.744.745a2.138 2.138 0 0 1-1.516.626 2.14 2.14 0 0 1-1.518-.626l-12.81-12.809a2.14 2.14 0 0 1-.628-1.514v-.006a2.131 2.131 0 0 1 .629-1.514ZM59.95 34.208l.744-.744a2.135 2.135 0 0 1 1.518-.626c.549 0 1.1.207 1.517.625l12.81 12.81c.417.416.626.966.628 1.516l-.002.002c0 .549-.21 1.099-.628 1.516l-.744.745a2.148 2.148 0 0 1-3.033 0l-12.81-12.81a2.13 2.13 0 0 1-.628-1.514l-.001-.004c0-.55.21-1.098.629-1.515Zm-9.41.973 1.398-1.398a2.133 2.133 0 0 1 1.517-.624c.55 0 1.1.208 1.519.626L72 50.812l4.216 4.215c.419.42.627.969.629 1.515l-.002.005c0 .55-.21 1.097-.628 1.514L74.82 59.46a2.14 2.14 0 0 1-1.517.627 2.14 2.14 0 0 1-1.519-.625L50.541 38.218a2.134 2.134 0 0 1-.628-1.517v-.003c0-.548.21-1.1.628-1.517Zm-3.8 22.003 5.313-5.313 5.313-5.313 6.557 6.557-10.626 10.626-6.557-6.557Z" stroke="#B01736" stroke-width=".8" mask="url(#b)"/></g><defs><clipPath id="a"><path fill="#fff" transform="translate(31 31)" d="M0 0h48v48H0z"/></clipPath></defs></svg>
